svg/icon/exp.svg

<svg xmlns="http://www.w3.org/2000/svg" xmlns:xlink="http://www.w3.org/1999/xlink" width="32" height="32" viewBox="0 0 32 32"><defs><linearGradient id="exp-c" x1="50%" x2="50%" y1="0%" y2="100%"><stop offset="0%" stop-color="#FFF" stop-opacity=".5"/><stop offset="100%" stop-opacity=".5"/></linearGradient><circle id="exp-b" cx="16" cy="15" r="15"/><filter id="exp-a" width="111.7%" height="111.7%" x="-5.8%" y="-4.2%" filterUnits="objectBoundingBox"><feOffset dy=".5" in="SourceAlpha" result="shadowOffsetOuter1"/><feGaussianBlur in="shadowOffsetOuter1" result="shadowBlurOuter1" stdDeviation=".5"/><feComposite in="shadowBlurOuter1" in2="SourceAlpha" operator="out" result="shadowBlurOuter1"/><feColorMatrix in="shadowBlurOuter1" values="0 0 0 0 0 0 0 0 0 0 0 0 0 0 0 0 0 0 0.199473505 0"/></filter><path id="exp-e" d="M26,13.7173145 C25.99642,13.7557173 25.98984,13.7940813 25.9897,13.8325035 C25.9853,15.0534258 25.9809,16.2743481 25.9778,17.4953092 C25.97568,18.3309011 25.97582,19.1664929 25.97396,20.0020848 C25.97378,20.0825053 25.96658,20.1629064 25.96174,20.2615177 C25.91822,20.2415777 25.88604,20.2294311 25.85642,20.2129311 C24.30504,19.3475071 22.75418,18.4812085 21.20186,17.617417 C21.11874,17.5711625 21.11166,17.5302527 21.1516,17.4483163 C21.94516,15.8203746 21.94796,14.1885071 21.16682,12.5558622 C21.12956,12.4779876 21.1369,12.4393905 21.2167,12.3946908 C22.76946,11.5251078 24.32052,10.6526678 25.87254,9.78180212 C25.91162,9.75987986 25.95736,9.74915194 26,9.73321555 L26,13.7173145 Z M16.3,4 C16.37836,4.0474788 16.45538,4.09721201 16.53526,4.14210601 C19.55126,5.83715548 22.56754,7.53175795 25.58368,9.22655477 C25.61754,9.24558127 25.65016,9.26672615 25.69734,9.29539223 C25.65476,9.32225088 25.62606,9.34230742 25.59556,9.35935159 C24.05634,10.2190424 22.517,11.0785 20.9776,11.9378799 C20.85698,12.0052208 20.8585,12.0038216 20.77724,11.8899152 C19.7538,10.4554064 18.34964,9.63481802 16.56648,9.4265371 C16.51362,9.42035689 16.46008,9.41633392 16.40692,9.41670318 C16.31156,9.41736396 16.27524,9.38071025 16.2752,9.28217668 C16.27472,8.26868021 16.26886,7.25518375 16.26576,6.24166784 C16.26362,5.54219611 16.26312,4.84268551 16.26318,4.14319435 C16.2632,4.0954629 16.27414,4.04773145 16.28,4 L16.3,4 Z M15.68,26 C15.64648,25.9754152 15.6152,25.9470989 15.57914,25.9268092 C12.54066,24.2182721 9.50182,22.5103763 6.46308,20.8023057 C6.42032,20.778265 6.37856,20.752553 6.31952,20.7177067 C6.35954,20.6907314 6.38628,20.6697615 6.41572,20.6533198 C7.94598,19.7982155 9.4769,18.9442191 11.00584,18.0868993 C11.0983,18.0350671 11.14144,18.054735 11.19834,18.1336979 C12.1537,19.4595088 13.46,20.2445901 15.09912,20.5109028 C15.26624,20.5380336 15.43658,20.5508799 15.60598,20.5585565 C15.70216,20.5628905 15.73966,20.5889329 15.73958,20.6887686 C15.73882,21.5857155 15.74318,22.482682 15.74558,23.3796484 C15.74784,24.2280088 15.74966,25.0763887 15.75102,25.9247686 C15.75106,25.9498392 15.74384,25.9749293 15.74,26 L15.68,26 Z M6,19.45053 C6.00544,19.4196484 6.01548,19.3888057 6.01566,19.3579046 C6.01804,18.9369505 6.01936,18.5159965 6.02036,18.0950424 C6.0226,17.1528127 6.02404,16.210583 6.02666,15.2683728 C6.03076,13.7820318 6.03548,12.2956714 6.04018,10.8093304 C6.0412,10.4887367 6.0431,10.1681625 6.04506,9.84758834 C6.04524,9.81966078 6.04896,9.79175265 6.05228,9.74697527 C6.0962,9.76813958 6.128,9.78149117 6.15784,9.79814664 C7.67996,10.6477509 9.20148,11.4983074 10.7249,12.3456961 C10.81356,12.3950212 10.82642,12.4330936 10.78158,12.5251943 C9.98224,14.1669735 9.98562,15.8104435 10.78222,17.452689 C10.84658,17.5853498 10.84906,17.5842809 10.71914,17.6572774 C9.19094,18.5160936 7.66288,19.3751237 6.13374,20.2323657 C6.09518,20.253977 6.04484,20.255765 6,20.2667845 L6,19.45053 Z M19.472792,18.5192051 C19.636232,17.9472634 19.688612,17.3691998 19.653812,16.7841786 C19.611112,16.0662829 19.433312,15.3846133 19.059412,14.758138 C18.628212,14.0356557 18.006972,13.5131557 17.249452,13.1329366 C17.048432,13.0320125 17.027452,13.0821539 17.146252,12.8331186 C17.415032,12.2695532 17.885092,11.9203129 18.465992,11.6964843 C18.869832,11.5409101 19.293352,11.4742104 19.724132,11.4500143 C19.776852,11.4470602 19.847552,11.4820814 19.884752,11.521767 C20.616072,12.3024171 21.067692,13.2153005 21.221532,14.2606698 C21.605172,16.8675143 19.906052,19.314509 17.267812,19.9634896 C14.341452,20.6833482 11.372332,18.880767 10.764472,16.0186486 C10.195612,13.3400125 11.912112,10.7491044 14.472292,10.0653747 C16.395492,9.55173693 18.100712,9.96108852 19.594372,11.2348147 C19.650612,11.2827599 19.706592,11.3309966 19.762712,11.3791168 C19.755712,11.3896698 19.748692,11.4002228 19.741672,11.4107758 C19.595132,11.3927405 19.448952,11.3710903 19.301972,11.3572334 C18.389032,11.2711769 17.490512,11.3310744 16.619992,11.6302122 C15.509592,12.0117917 14.679152,12.715092 14.111552,13.7152564 C14.031312,13.8566822 14.025932,13.8580814 13.871292,13.8054719 C13.668572,13.736479 13.499912,13.6179277 13.353392,13.4678147 C13.061532,13.1688323 12.857652,12.8159966 12.724432,12.4294613 C12.607312,12.0896468 12.520912,11.7398235 12.421172,11.394373 C12.413232,11.3668924 12.406972,11.3389648 12.383292,11.3101433 C12.369212,11.3894171 12.353652,11.4684772 12.341452,11.5480231 C12.329172,11.6280355 12.318552,11.7083783 12.310112,11.7888571 C12.216452,12.6816645 12.267192,13.5615479 12.575792,14.4151945 C12.960292,15.4788129 13.682772,16.2444984 14.739492,16.7114348 C14.876552,16.7720125 14.877272,16.7727899 14.802752,16.8994454 C14.412032,17.5634295 13.798972,17.8969277 13.041592,18.0107758 C12.690092,18.0635991 12.337632,18.0433677 11.978972,18.0165867 C12.011752,18.0298412 12.043992,18.0446504 12.077392,18.0561557 C13.806312,18.6517687 15.707732,18.384873 17.138392,16.871032 C17.503232,16.4849825 17.809152,16.058373 18.075552,15.6038359 C18.144352,15.4863924 18.148772,15.4849542 18.259312,15.5654913 C18.727892,15.90688 19.006932,16.3757405 19.199852,16.8997175 C19.377752,17.3828818 19.448392,17.8853253 19.465712,18.3961062 C19.467132,18.4371716 19.470392,18.4781786 19.472792,18.5192051 Z M25.740566,20.7317541 C22.579826,22.4851074 19.437486,24.2282576 16.278186,25.9808141 C16.272546,25.9263194 16.265986,25.8924449 16.265986,25.8585703 C16.265486,24.1289661 16.265986,22.3993424 16.264146,20.6697382 C16.264066,20.592194 16.286606,20.564247 16.369546,20.5573866 C18.210586,20.40533 19.668606,19.5990067 20.739066,18.1340827 C20.833086,18.0054254 20.831986,18.0049201 20.969226,18.0810261 C22.517146,18.9394343 24.065106,19.7977452 25.612946,20.6562505 C25.649326,20.6764237 25.684566,20.6985403 25.740566,20.7317541 Z M15.73871,4.03636413 C15.74183,4.09218039 15.74539,4.12624929 15.74539,4.1603182 C15.74567,5.86698958 15.74527,7.57366095 15.74685,9.2803129 C15.74693,9.36001431 15.73537,9.40016625 15.63631,9.40733763 C13.75925,9.54328286 12.27371,10.3558641 11.18559,11.8502511 C11.10017,11.967539 11.10161,11.9689383 10.97509,11.8987016 C9.46829,11.0622546 7.96145,10.2258076 6.45503,9.38869982 C6.40185,9.35913975 6.35277,9.32258322 6.30179,9.2892917 C6.35369,9.25308498 6.40271,9.21203905 6.45787,9.18141007 C9.49443,7.4953394 12.53151,5.81014329 15.56863,4.12504435 C15.61909,4.09707792 15.67099,4.07157968 15.73871,4.03636413 Z"/><filter id="exp-d" width="117.5%" height="115.9%" x="-8.8%" y="-5.7%" filterUnits="objectBoundingBox"><feOffset dy=".5" in="SourceAlpha" result="shadowOffsetOuter1"/><feGaussianBlur in="shadowOffsetOuter1" result="shadowBlurOuter1" stdDeviation=".5"/><feColorMatrix in="shadowBlurOuter1" values="0 0 0 0 0 0 0 0 0 0 0 0 0 0 0 0 0 0 0.204257246 0"/></filter></defs><g fill="none" fill-rule="evenodd"><use fill="#000" filter="url(#exp-a)" xlink:href="#exp-b"/><use fill="#FFAA5C" xlink:href="#exp-b"/><use fill="url(#exp-c)" style="mix-blend-mode:soft-light" xlink:href="#exp-b"/><circle cx="16" cy="15" r="14.5" stroke="#000" stroke-opacity=".097"/><g><use fill="#000" filter="url(#exp-d)" xlink:href="#exp-e"/><use fill="#FFF" xlink:href="#exp-e"/></g></g></svg>

<svg xmlns="http://www.w3.org/2000/svg" xmlns:xlink="http://www.w3.org/1999/xlink" width="32" height="32" viewBox="0 0 32 32"><defs><linearGradient id="c" x1="50%" x2="50%" y1="0%" y2="100%"><stop offset="0%" stop-color="#FFF" stop-opacity=".5"/><stop offset="100%" stop-opacity=".5"/></linearGradient><circle id="b" cx="16" cy="15" r="15"/><filter id="a" width="111.7%" height="111.7%" x="-5.8%" y="-4.2%" filterUnits="objectBoundingBox"><feOffset dy=".5" in="SourceAlpha" result="shadowOffsetOuter1"/><feGaussianBlur in="shadowOffsetOuter1" result="shadowBlurOuter1" stdDeviation=".5"/><feComposite in="shadowBlurOuter1" in2="SourceAlpha" operator="out" result="shadowBlurOuter1"/><feColorMatrix in="shadowBlurOuter1" values="0 0 0 0 0 0 0 0 0 0 0 0 0 0 0 0 0 0 0.199473505 0"/></filter><path id="e" d="M26 13.717c-.004.039-.01.077-.01.116-.005 1.22-.01 2.441-.012 3.662l-.004 2.507c0 .08-.007.16-.012.26-.044-.02-.076-.033-.106-.05l-4.654-2.595c-.083-.046-.09-.087-.05-.169.793-1.628.796-3.26.015-4.892-.037-.078-.03-.117.05-.161l4.656-2.613c.039-.022.084-.033.127-.049v3.984zM16.3 4c.078.047.155.097.235.142l9.049 5.085c.034.019.066.04.113.068-.042.027-.07.047-.101.064l-4.618 2.579c-.121.067-.12.066-.2-.048-1.024-1.435-2.428-2.255-4.212-2.463a1.3 1.3 0 0 0-.16-.01c-.094 0-.13-.036-.13-.135-.001-1.013-.007-2.027-.01-3.04l-.003-2.099c0-.048.011-.095.017-.143h.02zm-.62 22c-.034-.025-.065-.053-.1-.073l-9.117-5.125c-.043-.024-.084-.05-.143-.084.04-.027.066-.048.096-.065 1.53-.855 3.06-1.709 4.59-2.566.092-.052.135-.032.192.047.956 1.326 2.262 2.11 3.901 2.377.167.027.338.04.507.048.096.004.134.03.134.13-.001.897.003 1.794.006 2.69l.005 2.546c0 .025-.007.05-.011.075h-.06zM6 19.45c.005-.03.015-.061.016-.092l.004-1.263.007-2.827.013-4.459.005-.961c0-.028.004-.056.007-.101.044.021.076.034.106.051 1.522.85 3.043 1.7 4.567 2.548.089.049.101.087.057.18-.8 1.641-.796 3.284 0 4.927.065.132.067.131-.063.204-1.528.86-3.056 1.718-4.585 2.575-.039.022-.09.024-.134.035v-.816zm13.473-.93c.163-.573.216-1.15.18-1.736-.042-.718-.22-1.4-.594-2.026-.43-.722-1.052-1.245-1.81-1.625-.2-.101-.222-.05-.103-.3.269-.563.74-.913 1.32-1.137a4.11 4.11 0 0 1 1.258-.246.236.236 0 0 1 .16.072 4.994 4.994 0 0 1 1.338 2.739c.383 2.607-1.316 5.054-3.954 5.702-2.927.72-5.896-1.082-6.504-3.944-.568-2.679 1.148-5.27 3.708-5.954 1.923-.513 3.629-.104 5.122 1.17l.169.144-.021.032c-.147-.018-.293-.04-.44-.054-.913-.086-1.811-.026-2.682.273a4.465 4.465 0 0 0-2.508 2.085c-.08.142-.086.143-.24.09a1.31 1.31 0 0 1-.519-.337 2.747 2.747 0 0 1-.629-1.039c-.117-.34-.203-.69-.303-1.035-.008-.027-.014-.055-.038-.084-.014.08-.03.158-.042.238-.012.08-.022.16-.03.24-.095.894-.044 1.774.265 2.627.384 1.064 1.107 1.83 2.163 2.296.138.061.138.062.064.188-.391.664-1.004.998-1.761 1.112-.352.053-.704.032-1.063.006.033.013.065.028.098.04 1.73.595 3.63.328 5.061-1.186a6.93 6.93 0 0 0 .938-1.267c.068-.118.073-.119.183-.039.469.342.748.81.94 1.335.179.483.25.985.267 1.496.001.041.004.082.007.123zm6.268 2.212l-9.463 5.249c-.005-.055-.012-.089-.012-.122 0-1.73 0-3.46-.002-5.19 0-.077.023-.105.106-.112 1.84-.152 3.299-.958 4.37-2.423.093-.129.092-.13.23-.053l4.643 2.575c.036.02.072.043.128.076zM15.739 4.036c.003.056.006.09.006.124 0 1.707 0 3.414.002 5.12 0 .08-.012.12-.11.127-1.878.136-3.363.949-4.451 2.443-.086.118-.084.119-.21.049l-4.521-2.51c-.053-.03-.102-.066-.153-.1.052-.036.1-.077.156-.108l9.11-5.056c.051-.028.103-.053.17-.089z"/><filter id="d" width="117.5%" height="115.9%" x="-8.8%" y="-5.7%" filterUnits="objectBoundingBox"><feOffset dy=".5" in="SourceAlpha" result="shadowOffsetOuter1"/><feGaussianBlur in="shadowOffsetOuter1" result="shadowBlurOuter1" stdDeviation=".5"/><feColorMatrix in="shadowBlurOuter1" values="0 0 0 0 0 0 0 0 0 0 0 0 0 0 0 0 0 0 0.204257246 0"/></filter></defs><g fill="none" fill-rule="evenodd"><use fill="#000" filter="url(#a)" xlink:href="#b"/><use fill="#FFAA5C" xlink:href="#b"/><use fill="url(#c)" style="mix-blend-mode:soft-light" xlink:href="#b"/><circle cx="16" cy="15" r="14.5" stroke="#000" stroke-opacity=".097"/><use fill="#000" filter="url(#d)" xlink:href="#e"/><use fill="#FFF" xlink:href="#e"/></g></svg>
